lib/brands/icons/amazon.svg

<svg xmlns="http://www.w3.org/2000/svg" fill="none" aria-hidden="true" viewBox="0 0 48 48"><g id="amazon-Icon"><g id="Amazon"><path id="Shape" fill="#221F1F" fill-rule="evenodd" d="M17.8032 20.3056C17.1431 21.2557 16.8131 22.3998 16.8131 23.74H16.8091C16.8091 25.4282 17.2891 26.7344 18.2493 27.6545C19.2094 28.5746 20.4375 29.0347 21.9297 29.0347C22.8998 29.0347 23.7159 28.9386 24.376 28.7426C25.4222 28.4506 26.4883 27.7145 27.5764 26.5303C27.6544 26.6284 27.7905 26.8164 27.9865 27.1004C28.1785 27.3824 28.3185 27.5685 28.4065 27.6685C28.4925 27.7645 28.6386 27.9205 28.8426 28.1325C29.0466 28.3466 29.2826 28.5706 29.5547 28.8026C29.8847 28.9386 30.1668 28.9186 30.3988 28.7426C30.5348 28.6266 31.4069 27.8725 33.0191 26.4723C33.1751 26.3563 33.2511 26.2203 33.2511 26.0663C33.2511 25.9303 33.1931 25.7742 33.0771 25.6002L32.409 24.7121C32.273 24.5281 32.129 24.2281 31.989 23.808C31.841 23.394 31.769 22.9339 31.769 22.4278V15.387C31.769 15.3109 31.761 15.0629 31.7409 14.6469C31.7209 14.2308 31.6929 13.9568 31.6529 13.8308C31.6169 13.7047 31.5569 13.4767 31.4769 13.1507C31.4009 12.8186 31.3169 12.5666 31.2169 12.3906C31.1229 12.2146 30.9889 12.0185 30.8228 11.7945C30.6568 11.5725 30.4788 11.3624 30.2868 11.1684C29.0426 10.0243 27.3164 9.45221 25.1061 9.45221H24.38C22.6558 9.54822 21.1456 10.0143 19.8555 10.8484C18.5673 11.6825 17.7572 12.9626 17.4272 14.6889C17.4072 14.7669 17.3972 14.8329 17.3972 14.8929C17.3972 15.1649 17.5632 15.3389 17.8912 15.419L21.2376 15.827C21.5477 15.769 21.7417 15.545 21.8217 15.1569C21.9557 14.5368 22.2558 14.0508 22.7218 13.7007C23.1879 13.3487 23.7419 13.1487 24.382 13.0887H24.6081C25.4822 13.0887 26.1222 13.3807 26.5283 13.9648C26.7983 14.3888 26.9383 15.2249 26.9383 16.4651V16.9591C25.7542 17.0552 24.8981 17.1312 24.378 17.1912C22.8458 17.3852 21.5557 17.7052 20.5095 18.1513C19.3634 18.6374 18.4633 19.3554 17.8032 20.3056ZM22.3838 24.9761C22.0057 24.5161 21.8177 23.912 21.8177 23.1559L21.8157 23.1579C21.8157 21.4897 22.6678 20.4136 24.376 19.9295C24.9561 19.7755 25.8102 19.6955 26.9363 19.6955V20.4216C26.9363 21.0417 26.9323 21.4897 26.9223 21.7617C26.9123 22.0338 26.8543 22.3878 26.7483 22.8219C26.6403 23.2579 26.4803 23.66 26.2683 24.03C25.8222 24.8641 25.1901 25.3862 24.378 25.6002C24.338 25.6002 24.264 25.6102 24.158 25.6302C24.05 25.6482 23.97 25.6562 23.91 25.6562C23.2699 25.6562 22.7638 25.4302 22.3838 24.9761Z" clip-rule="evenodd"/><g id="Union"><path fill="#FF9900" d="M34.2092 32.2911C34.1352 32.3692 34.0752 32.4452 34.0352 32.5252V32.5292C34.0152 32.5672 34.0072 32.5952 34.0072 32.6152C33.9872 32.6552 33.9952 32.6912 34.0352 32.7312C34.0752 32.7712 34.1492 32.7912 34.2692 32.7912C34.6753 32.7332 35.1213 32.6772 35.6094 32.6172C36.0534 32.5772 36.4415 32.5572 36.7695 32.5572C37.6636 32.5572 38.2057 32.6752 38.3997 32.9052C38.4757 33.0012 38.5157 33.1573 38.5157 33.3713C38.5157 34.0314 38.1597 35.2035 37.4396 36.8917C37.3816 37.0457 37.4076 37.1518 37.5276 37.2118C37.5636 37.2298 37.6036 37.2398 37.6436 37.2398C37.7216 37.2398 37.8077 37.2038 37.9077 37.1238C38.5637 36.5617 39.0778 35.8176 39.4479 34.8975C39.8159 33.9774 39.9999 33.1773 39.9999 32.4972V32.2931C39.9999 32.0611 39.9639 31.8871 39.8839 31.7731C39.7119 31.5571 39.1858 31.413 38.3117 31.333C38.1397 31.295 37.9537 31.283 37.7596 31.303C37.0616 31.323 36.3435 31.431 35.6094 31.6231C35.1613 31.7391 34.6953 31.9631 34.2092 32.2911Z"/><path fill="#FF9900" d="M8.52407 32.001C8.31004 31.865 8.15602 31.875 8.06001 32.031C8.02 32.089 8 32.145 8 32.205C8 32.301 8.06001 32.4011 8.17802 32.4951C10.3123 34.4153 12.7246 35.9055 15.4249 36.9616C18.1193 38.0178 20.9796 38.5478 24.006 38.5478C25.9662 38.5478 27.9725 38.2738 30.0268 37.7337C32.083 37.1897 33.9452 36.4236 35.6115 35.4334C36.1555 35.1054 36.6016 34.8134 36.9516 34.5613C37.2217 34.3673 37.2757 34.1533 37.1116 33.9212C36.9456 33.6872 36.7176 33.6312 36.4256 33.7472C36.3557 33.7812 36.2442 33.8297 36.0896 33.8969L36.0335 33.9212L35.6135 34.0953C31.907 35.5114 28.1525 36.2215 24.352 36.2215C18.6493 36.2215 13.3727 34.8134 8.52407 32.001Z"/></g></g></g></svg>

<svg xmlns="http://www.w3.org/2000/svg" fill="none" aria-hidden="true" viewBox="0 0 48 48"><path fill="#221F1F" fill-rule="evenodd" d="M17.803 20.306c-.66.95-.99 2.094-.99 3.434h-.004c0 1.688.48 2.994 1.44 3.915.96.92 2.189 1.38 3.68 1.38.97 0 1.787-.096 2.447-.292 1.046-.292 2.112-1.028 3.2-2.213.078.098.215.286.41.57.192.282.332.468.42.569.087.096.233.252.437.463.204.215.44.439.712.67.33.137.612.117.844-.06.136-.115 1.008-.87 2.62-2.27.156-.116.232-.252.232-.406 0-.136-.058-.292-.174-.466l-.668-.888c-.136-.184-.28-.484-.42-.904a4.078 4.078 0 0 1-.22-1.38v-7.041c0-.076-.008-.324-.028-.74s-.048-.69-.088-.816a20.932 20.932 0 0 1-.176-.68c-.076-.332-.16-.584-.26-.76a5.026 5.026 0 0 0-.394-.597 5.972 5.972 0 0 0-.536-.626c-1.244-1.144-2.97-1.716-5.18-1.716h-.727c-1.724.096-3.234.562-4.524 1.396-1.289.834-2.099 2.115-2.429 3.84a.824.824 0 0 0-.03.205c0 .272.166.446.494.526l3.347.408c.31-.058.504-.282.584-.67.134-.62.434-1.106.9-1.456.466-.352 1.02-.552 1.66-.612h.226c.874 0 1.514.292 1.92.876.27.424.41 1.26.41 2.5v.494c-1.184.096-2.04.172-2.56.232-1.532.194-2.822.514-3.869.96-1.146.486-2.046 1.204-2.706 2.155Zm4.58 4.67c-.377-.46-.565-1.064-.565-1.82l-.002.002c0-1.668.852-2.744 2.56-3.229.58-.153 1.434-.233 2.56-.233v.726c0 .62-.004 1.068-.014 1.34s-.068.626-.174 1.06a4.676 4.676 0 0 1-.48 1.208c-.446.834-1.078 1.356-1.89 1.57-.04 0-.114.01-.22.03a1.574 1.574 0 0 1-.248.026c-.64 0-1.146-.226-1.526-.68Z" clip-rule="evenodd"/><g fill="#F90"><path d="M34.21 32.291a1 1 0 0 0-.175.234v.004a.198.198 0 0 0-.028.086c-.02.04-.012.076.028.116.04.04.114.06.234.06a70.86 70.86 0 0 1 1.34-.174c.444-.04.832-.06 1.16-.06.895 0 1.437.118 1.63.348.077.096.117.252.117.466 0 .66-.356 1.832-1.076 3.52-.058.155-.032.26.088.32a.26.26 0 0 0 .116.029c.078 0 .164-.036.264-.116.656-.562 1.17-1.306 1.54-2.227.368-.92.552-1.72.552-2.4v-.204c0-.232-.036-.406-.116-.52-.172-.216-.698-.36-1.572-.44a1.734 1.734 0 0 0-.552-.03 9.58 9.58 0 0 0-2.15.32c-.449.116-.915.34-1.4.668Z"/><path d="M8.524 32.001c-.214-.136-.368-.126-.464.03a.3.3 0 0 0-.06.174c0 .096.06.196.178.29a23.587 23.587 0 0 0 7.247 4.467c2.694 1.056 5.555 1.586 8.581 1.586 1.96 0 3.966-.274 6.02-.814 2.057-.544 3.92-1.31 5.585-2.3.545-.329.99-.62 1.34-.873.27-.194.325-.408.16-.64-.165-.234-.393-.29-.685-.174-.07.034-.182.083-.336.15l-.057.024-.42.174c-3.706 1.416-7.46 2.127-11.261 2.127-5.703 0-10.98-1.409-15.828-4.221Z"/></g></svg>
